azure-patterns/svg-disks-dark.svg

<svg xmlns="http://www.w3.org/2000/svg" viewBox="0 0 148 126">
                                
                            
    <path d="M147.851 98.9119C147.851 113.7 114.751 125.685 73.926 125.685C33.101 125.685 0 113.7 0 98.9119V84.4819H147.851V98.9119Z" fill="#1A1A1F"></path>
    <path d="M147.851 84.482C147.851 99.27 114.751 111.255 73.926 111.255C33.101 111.255 0 99.27 0 84.482C0 69.694 33.1 57.709 73.925 57.709C114.75 57.709 147.851 69.7 147.851 84.482Z" fill="#505055"></path>
    <path d="M97.6202 82.941C97.6202 86.874 87.0102 90.059 73.9202 90.059C60.8302 90.059 50.2202 86.874 50.2202 82.941C50.2202 79.008 60.8332 75.823 73.9202 75.823C87.0072 75.823 97.6202 79.011 97.6202 82.941Z" fill="#1A1A1F"></path>
    <path opacity="0.25" d="M127.362 66.14C117.006 62.216 103.4 59.43 88.1 58.354L78.5 76.108C82.6276 76.2976 86.7204 76.9545 90.7 78.066L127.362 66.14Z" fill="white"></path>
    <path opacity="0.25" d="M17.4521 101.9C28.1001 106.463 42.8761 109.715 59.7021 110.9L70.9181 90.1449C66.7645 90.0277 62.6342 89.4808 58.5931 88.5129L17.4521 101.9Z" fill="white"></path>
    <path d="M147.851 41.1999C147.851 55.9879 114.751 67.9729 73.926 67.9729C33.101 67.9729 0 55.9879 0 41.1999V26.7729H147.851V41.1999Z" fill="#1A1A1F"></path>
    <path d="M147.851 26.773C147.851 41.561 114.751 53.546 73.926 53.546C33.101 53.546 0 41.558 0 26.773C0 11.988 33.1 0 73.925 0C114.75 0 147.85 11.985 147.85 26.773" fill="#505055"></path>
    <path d="M97.6202 25.232C97.6202 29.165 87.0102 32.35 73.9202 32.35C60.8302 32.35 50.2202 29.165 50.2202 25.232C50.2202 21.299 60.8332 18.114 73.9202 18.114C87.0072 18.114 97.6202 21.299 97.6202 25.232Z" fill="#1A1A1F"></path>
    <path opacity="0.25" d="M127.362 8.283C117.006 4.359 103.4 1.573 88.1 0.5L78.5 18.251C82.6276 18.4406 86.7204 19.0975 90.7 20.209L127.362 8.283Z" fill="white"></path>
    <path opacity="0.25" d="M17.4521 44.042C28.1001 48.605 42.8761 51.857 59.7021 53.042L70.9181 32.288C66.7645 32.1708 62.6342 31.6239 58.5931 30.656L17.4521 44.042Z" fill="white"></path>
</svg>

<svg xmlns="http://www.w3.org/2000/svg" viewBox="0 0 148 126"><path d="M147.851 98.912c0 14.788-33.1 26.773-73.925 26.773C33.101 125.685 0 113.7 0 98.912v-14.43h147.851v14.43z" fill="#1A1A1F"/><path d="M147.851 84.482c0 14.788-33.1 26.773-73.925 26.773C33.101 111.255 0 99.27 0 84.482s33.1-26.773 73.925-26.773c40.825 0 73.926 11.991 73.926 26.773z" fill="#505055"/><path d="M97.62 82.941c0 3.933-10.61 7.118-23.7 7.118s-23.7-3.185-23.7-7.118c0-3.933 10.613-7.118 23.7-7.118s23.7 3.188 23.7 7.118z" fill="#1A1A1F"/><path opacity=".25" d="M127.362 66.14c-10.356-3.924-23.962-6.71-39.262-7.786l-9.6 17.754c4.128.19 8.22.846 12.2 1.958l36.662-11.926zM17.452 101.9c10.648 4.563 25.424 7.815 42.25 9l11.216-20.755a60.204 60.204 0 0 1-12.325-1.632L17.453 101.9z" fill="#fff"/><path d="M147.851 41.2c0 14.788-33.1 26.773-73.925 26.773C33.101 67.973 0 55.988 0 41.2V26.773h147.851V41.2z" fill="#1A1A1F"/><path d="M147.851 26.773c0 14.788-33.1 26.773-73.925 26.773C33.101 53.546 0 41.558 0 26.773S33.1 0 73.925 0c40.825 0 73.925 11.985 73.925 26.773" fill="#505055"/><path d="M97.62 25.232c0 3.933-10.61 7.118-23.7 7.118s-23.7-3.185-23.7-7.118c0-3.933 10.613-7.118 23.7-7.118s23.7 3.185 23.7 7.118z" fill="#1A1A1F"/><path opacity=".25" d="M127.362 8.283C117.006 4.359 103.4 1.573 88.1.5l-9.6 17.751c4.128.19 8.22.846 12.2 1.958l36.662-11.926zM17.452 44.042c10.648 4.563 25.424 7.815 42.25 9l11.216-20.754a60.204 60.204 0 0 1-12.325-1.632l-41.14 13.386z" fill="#fff"/></svg>
